X: 18158
T: Humours Of Drimnagh, The
R: reel
M: 4/4
K: Dmajor
|:dBAF DFBF|DFBF ~E2 B^c|dBAF DFBF|1 EGFE ~D2 FA:|2 EGFE ~D2 de||
|:faab afed|faaf ~g2 eg|1 faab afed|ABdf e2 de:|2 bg ~g2 af ~f2|ABdf ~e2 B^c||

